icons/device/desktop.svg

<svg width="32" height="32" viewBox="0 0 32 32" fill="none" xmlns="http://www.w3.org/2000/svg">
<path fill-rule="evenodd" clip-rule="evenodd" d="M4 4C2.89543 4 2 4.89543 2 6V22C2 23.1046 2.89543 24 4 24H12.2192L11.2192 28H8V30H24V28H20.7808L19.7808 24H28C29.1046 24 30 23.1046 30 22V6C30 4.89543 29.1046 4 28 4H4ZM17.7192 24H14.2808L13.2808 28H18.7192L17.7192 24ZM4 6L28 6V22H4V6Z" fill="black"/>
</svg>

<svg viewBox="0 0 32 32" xmlns="http://www.w3.org/2000/svg"><path fill-rule="evenodd" d="M4 4a2 2 0 00-2 2v16a2 2 0 002 2h8.22l-1 4H8v2h16v-2h-3.22l-1-4H28a2 2 0 002-2V6a2 2 0 00-2-2H4zm13.72 20h-3.44l-1 4h5.44l-1-4zM4 6h24v16H4V6z"/></svg>
